app/dist/common/images/shanghai-fosun-pharmaceutical-co-ltd.svg

<svg height="18" viewBox="0 0 18 18" width="18" xmlns="http://www.w3.org/2000/svg"><path d="m0 0h18v18h-18z" fill="#f0f3fa"/><path d="m4 13h1.5v-3h2.5v-1.5h-2.5v-2h3.5v-1.5h-5zm6 0h1v-3h1.55c1.43 0 2.45-.92 2.45-2.54 0-1.5-.86-2.46-2.56-2.46h-2.44zm1-4v-3h1.35c1.15 0 1.65.35 1.65 1.46 0 1.04-.53 1.54-1.67 1.54z" fill="#013c83"/></svg>

<!-- by TradingView --><svg width="18" height="18" viewBox="0 0 18 18" xmlns="http://www.w3.org/2000/svg"><path fill="#F0F3FA" d="M0 0h18v18H0z"/><path d="M4 13h1.5v-3H8V8.5H5.5v-2H9V5H4v8ZM10 13h1v-3h1.55C13.98 10 15 9.08 15 7.46 15 5.96 14.14 5 12.44 5H10v8Zm1-4V6h1.35C13.5 6 14 6.35 14 7.46 14 8.5 13.47 9 12.33 9H11Z" fill="#013C83"/></svg>
